X: 6
T: O'Sullivan's March
R: jig
M: 6/8
L: 1/8
K: Amaj
|: E |AcB Bce | fec {c}B2 A | AcB c2 B | cAF ~F2 E |
AcB Bce | fec {c}B2 A | AcB c2 B | cAA A2 :|
|: e |{g}fea {g}fea | {g}fea fec | ecf ecf | ecA B2 e |
(af).f (ge).e | (fe).c B2 A | AcB c2 B | cAA A2 :|


Tune 2204	Setting 15572

